src/lib/packages/icons/src/assets/filled/golf-ball.svg

<svg xmlns="http://www.w3.org/2000/svg" width="24" height="24" fill="none"><path fill="currentColor" d="M14.87 15.38a.38.38 0 0 1-.1.35L13.6 16.9c-.07.07-.11.15-.12.24l-.44 3.51a.39.39 0 0 1-.39.35h-1.3a.39.39 0 0 1-.39-.35l-.44-3.51a.395.395 0 0 0-.12-.24l-1.17-1.17a.38.38 0 0 1-.1-.35c.88.4 1.85.62 2.87.62s1.99-.22 2.87-.62ZM12 3C8.69 3 6 5.69 6 9c0 2.48 1.51 4.61 3.65 5.53a6.12 6.12 0 0 0 4.7 0A6.027 6.027 0 0 0 18 9c0-3.31-2.69-6-6-6Zm-2.5 7.75c-.96 0-1.75-.79-1.75-1.75 0-.41.34-.75.75-.75s.75.34.75.75c0 .14.11.25.25.25.41 0 .75.34.75.75s-.34.75-.75.75Zm2.5 2.5c-.96 0-1.75-.79-1.75-1.75 0-.41.34-.75.75-.75s.75.34.75.75c0 .14.11.25.25.25.41 0 .75.34.75.75s-.34.75-.75.75Zm.5-3c-.96 0-1.75-.79-1.75-1.75 0-.41.34-.75.75-.75s.75.34.75.75c0 .14.11.25.25.25.41 0 .75.34.75.75s-.34.75-.75.75Z"/></svg>

<svg width="24" height="24" viewBox="0 0 24 24" fill="none" xmlns="http://www.w3.org/2000/svg">
<path d="M14.87 15.38C14.9 15.5 14.86 15.64 14.77 15.73L13.6 16.9C13.53 16.97 13.49 17.05 13.48 17.14L13.04 20.65C13.02 20.85 12.85 21 12.65 21H11.35C11.15 21 10.98 20.85 10.96 20.65L10.52 17.14C10.51 17.05 10.47 16.97 10.4 16.9L9.22998 15.73C9.13998 15.64 9.1 15.5 9.13 15.38C10.01 15.78 10.98 16 12 16C13.02 16 13.99 15.78 14.87 15.38ZM12 3C8.69 3 6 5.69 6 9C6 11.48 7.51002 13.61 9.65002 14.53C10.37 14.83 11.17 15 12 15C12.83 15 13.63 14.83 14.35 14.53C16.49 13.61 18 11.48 18 9C18 5.69 15.31 3 12 3ZM9.5 10.75C8.54 10.75 7.75 9.96 7.75 9C7.75 8.59 8.09 8.25 8.5 8.25C8.91 8.25 9.25 8.59 9.25 9C9.25 9.14 9.36 9.25 9.5 9.25C9.91 9.25 10.25 9.59 10.25 10C10.25 10.41 9.91 10.75 9.5 10.75ZM12 13.25C11.04 13.25 10.25 12.46 10.25 11.5C10.25 11.09 10.59 10.75 11 10.75C11.41 10.75 11.75 11.09 11.75 11.5C11.75 11.64 11.86 11.75 12 11.75C12.41 11.75 12.75 12.09 12.75 12.5C12.75 12.91 12.41 13.25 12 13.25ZM12.5 10.25C11.54 10.25 10.75 9.46 10.75 8.5C10.75 8.09 11.09 7.75 11.5 7.75C11.91 7.75 12.25 8.09 12.25 8.5C12.25 8.64 12.36 8.75 12.5 8.75C12.91 8.75 13.25 9.09 13.25 9.5C13.25 9.91 12.91 10.25 12.5 10.25Z" fill="currentColor"/>
</svg>
